frontend/css/icons/shelter.svg

<?xml version="1.0" encoding="UTF-8" standalone="no"?>
<svg viewBox="0 0 32 32" version="1.1" xmlns="http://www.w3.org/2000/svg" xmlns:xlink="http://www.w3.org/1999/xlink">
    <!-- Generator: Sketch 46.1 (44463) - http://www.bohemiancoding.com/sketch -->
    <title>icons/shelter</title>
    <desc>Created with Sketch.</desc>
    <defs></defs>
    <g id="Symbols" stroke="none" stroke-width="1" fill="none" fill-rule="evenodd">
        <g id="icons/shelter">
            <g id="Group-8">
                <circle id="Oval-2-Copy-2" fill="#FAB400" cx="16" cy="16" r="16"></circle>
                <path d="M10.0454,12.3406 L16.0012667,8.4418 L21.9571333,12.3406 L10.0454,12.3406 Z M25.5,12.7168 L16.0012667,6.5 L6.5,12.7168 L7.39046667,14.0772 L8.69766667,13.2234667 L8.69766667,23.4986667 L23.3061333,23.4986667 L23.3061333,13.2234667 L24.6095333,14.0772 L25.5,12.7168 Z" id="Page-1" fill="#FFFFFF"></path>
            </g>
        </g>
    </g>
</svg>

<!-- Generated by IcoMoon.io -->
<svg version="1.1" xmlns="http://www.w3.org/2000/svg" viewBox="0 0 32 32">
<title>shelter</title>
<path d="M16 32c-8.837 0-16-7.163-16-16s7.163-16 16-16c8.837 0 16 7.163 16 16s-7.163 16-16 16zM10.045 12.341l5.956-3.899 5.956 3.899h-11.912zM25.5 12.717l-9.499-6.217-9.501 6.217 0.89 1.36 1.307-0.854v10.275h14.608v-10.275l1.303 0.854 0.89-1.36z"></path>
</svg>
